!!!!SEGMENT: pl-wumfc--r282--001-007_paderewski-ignacy-jan--exercises-1-exercise-7.krn
!!!cenid: 18xx:3166
!!!COM: Paderewski, Ignacy Jan
!!!COM-rismid: pe30029943
!!!CDT: 1860/11/18-1941/06/29
!!!CNT: Polish
!!!GTL: [Exercises 1]
!!!OTL: [Exercise] 7
!!!OMV: 007
!!!PDT:
!!!AGN:
!!!SMS-siglum: PL-Wumfc
!!!SMS-shelfmark: R282
!!!SMS-shelfwork: 001-007 G
!!!SMS-variant:
!!!SMS-altvar:
!!!NIFC-rismid: 1001158933
!!!URL-scan: http://repozytorium.nifc.pl/skany/pl-wumfc--r282
!!!ONB-nifc: UWAGA: pierwsza grupa ćwiczeń na skanach 0004-0007
!!!key: a
**kern	**kern
*part1	*part1
*staff2	*staff1
*>[A,A,B]	*>[A,A,B]
*>A	*>A
*I"[Pianoforte]	*I"[Pianoforte]
*Ipiano	*Ipiano
*ICklav	*ICklav
*clefF4	*clefG2
*k[]	*k[]
*a:	*a:
!	!LO:TX:a:i:t=C. f.
!	!LO:TX:t=P:global:problem=brak oznaczenia metrycznego
4e\	2e/
4d\	.
=1	=1
4c\	1a
4B\	.
4c\	.
4A\	.
=2	=2
4B\	1g
4c\	.
4B\	.
4G\	.
=3	=3
4A\	1f
4G\	.
4A\	.
4B\	.
=4	=4
4c\	1e
4B\	.
4c\	.
4A\	.
=5	=5
4B\	[>1d
4c\	.
4B\	.
4A\	.
=6	=6
4G\	1d]
4B\	.
4G\	.
4F\	.
=7	=7
1E;	1e;
=8	=8
4G#X\	1b
4F#X\	.
4E\	.
4G#\	.
=9	=9
4A\	1cc
4B\	.
4A\	.
4G\	.
=10	=10
4F\	1cc
4G\	.
4F\	.
4E\	.
=11	=11
4D\	1b
4C\	.
4BB\	.
4C\	.
!!LO:LB:g=original
=12	=12
4D\	1b
4E\	.
4D\	.
4BB\	.
=13	=13
4C\	[>1a
4BB\	.
4AA\	.
4C\	.
=14	=14
4D\	1a]
4E\	.
4F\	.
4G\	.
=15	=15
1A;	1a;
=16:|!	=16:|!
*>B	*>B
4e\	1cc
4d\	.
4e\	.
4f\	.
=17	=17
4g\	1b
4a\	.
4g\	.
4f\	.
=18	=18
4e\	1g
4f\	.
4e\	.
4d\	.
=19	=19
4c\	1a
4B\	.
4c\	.
4A\	.
=20	=20
4G\	1b
4A\	.
4G\	.
4F\	.
=21	=21
4E\	[1cc
4F\	.
4E\	.
4D\	.
=22	=22
4C\	1cc]
4D\	.
4C\	.
4BB\	.
!!LO:LB:g=original
=23	=23
1AA;	1cc;
=24	=24
4E\	1g
4D\	.
4E\	.
4C\	.
=25	=25
4F\	1a
4G\	.
4A\	.
4B\	.
=26	=26
4c\	1g
4d\	.
4e\	.
4d\	.
=27	=27
4c#X\	1a
4B\	.
4c#\	.
4A\	.
=28	=28
4d\	1f
!LO:TX:a:t=P:problem=główka nuty skreślona	!
4cn\	.
4B\	.
4A\	.
=29	=29
4G#X\	[>1e
4A\	.
4G#\	.
4F#X\	.
=30	=30
4E\	1e]
4F#X\	.
4G#X\	.
4E\	.
=31	=31
1A;	1e;
=32	=32
4A\	1cc
4B\	.
4c\	.
4d\	.
=33	=33
4e\	1b
4f\	.
4g\	.
4E\	.
!!LO:LB:g=original
=34	=34
4F\	1dd
4E\	.
4F\	.
4G\	.
=35	=35
4A\	1cc
4B\	.
4c\	.
4C\	.
=36	=36
4D\	1b
4C\	.
4D\	.
4E\	.
=37	=37
4F\	[>1a
4E\	.
4F\	.
4G\	.
=38	=38
4A\	1a]
4B\	.
4c\	.
4A\	.
=39	=39
2G#X;\	1b;
4G#\	.
4E\	.
=40	=40
4c\	1e
4B\	.
4c\	.
4A\	.
=41	=41
4d\	1f
4c\	.
4B\	.
4A\	.
=42	=42
4G\	1e
4F\	.
4G\	.
4E\	.
=43	=43
4F\	1d
4G\	.
4F\	.
4E\	.
=44	=44
4D\	1d
4C\	.
4D\	.
!LO:TX:a:t=P:problem=główka nuty skreślona	!
4BB\	.
=45	=45
4AA\	[>1e
4BB\	.
4C\	.
4D\	.
=46	=46
4E\	1e_>
4F#X\	.
4G#X\	.
4E\	.
=47	=47
1A	1e]
==	==
*-	*-
!!!system-decoration: (s1,s2)
!!!RDF**kern: > = above
!!!AIN: 1 piano
!!!ENC: Andrzej Kubiczek
!!!END: 2021-11-11
!!!ENC: Andrzej Kubiczek
!!!END: 2021-11-14
